X: 2270
T: the BELLES OF TIPPERARY
Q: "Irish Reel."
R: Reel.
%R: reel
B: James Kerr "Merry Melodies" v.2 p.29 #270
Z: 2016 John Chambers <jc:trillian.mit.edu>
M: C
L: 1/8
K: D
|:\
vD3D F2A2 | defe dcBA |\
[1,3 BcBA B2b2 | afde (fe)e2 :|\
[2,4 BcBA BcdB | AGFE (FD)D2 :|
|:\
a3b agfa | gfeg fedc |\
[1,3 BcBA B2b2 | afde (fe)e2 :|\
[2,4 BcBA BcdB | AGFE (AD)D2 :|
